imgs/icon-perfomance.svg

<svg width="40" height="40" viewBox="0 0 40 40" fill="none" xmlns="http://www.w3.org/2000/svg">
<path d="M26.6696 20.2618V14.9979H21.4058" stroke="#F67ACB" stroke-width="2.5" stroke-linecap="round" stroke-linejoin="round"/>
<path d="M31.6714 8.32847L33.3387 6.66111" stroke="#F67ACB" stroke-width="2.5" stroke-linecap="round" stroke-linejoin="round"/>
<path d="M33.3389 13.3306H35.0062" stroke="#F67ACB" stroke-width="2.5" stroke-linecap="round" stroke-linejoin="round"/>
<path d="M26.6696 6.66111V4.99375" stroke="#F67ACB" stroke-width="2.5" stroke-linecap="round" stroke-linejoin="round"/>
<path d="M35.0062 20V26.6694C35.0062 31.2737 31.2736 35.0063 26.6693 35.0063H13.3305C8.72617 35.0063 4.99365 31.2737 4.99365 26.6694V13.3306C4.99365 8.72627 8.72617 4.99375 13.3305 4.99375H19.9999" stroke="#F67ACB" stroke-width="2.5" stroke-linecap="round" stroke-linejoin="round"/>
<path d="M4.99365 20V20C10.8106 23.878 18.5562 23.1111 23.4997 18.1676L26.6693 14.9979" stroke="#F67ACB" stroke-width="2.5" stroke-linecap="round" stroke-linejoin="round"/>
</svg>

<svg xmlns="http://www.w3.org/2000/svg" width="40" height="40" fill="none"><path stroke="#F67ACB" stroke-linecap="round" stroke-linejoin="round" stroke-width="2.5" d="M26.67 20.262v-5.264h-5.264M31.671 8.328l1.668-1.667M33.339 13.33h1.667M26.67 6.661V4.994"/><path stroke="#F67ACB" stroke-linecap="round" stroke-linejoin="round" stroke-width="2.5" d="M35.006 20v6.67a8.337 8.337 0 0 1-8.337 8.336H13.331a8.337 8.337 0 0 1-8.337-8.337V13.331a8.337 8.337 0 0 1 8.337-8.337H20"/><path stroke="#F67ACB" stroke-linecap="round" stroke-linejoin="round" stroke-width="2.5" d="M4.994 20A14.666 14.666 0 0 0 23.5 18.168l3.17-3.17"/></svg>
